src/images/foto.svg

<svg xmlns="http://www.w3.org/2000/svg" viewBox="0 0 61.46 93.13"><defs><style>.cls-1{fill:#6d9973;}</style></defs><title>foto</title><g id="Слой_2" data-name="Слой 2"><g id="Слой_1-2" data-name="Слой 1"><path class="cls-1" d="M61.13,92.7c-15.33.14-45.72.37-61.06.43V92.7L0,52.67v-.5H.5c15.11,0,45.52.09,60.63.17h.33v.33l-.33,40Zm0,0-.33-40,.33.33-30.31.12L.5,53.17l.5-.5-.07,40L.5,92.27c15.11.06,45.52.29,60.63.43Z"/><path class="cls-1" d="M45.94,74.5C46,86.85,30.9,93.23,22,84.57a14.19,14.19,0,0,1,0-20.15c8.86-8.66,24-2.27,23.9,10.08Zm0,0C45.88,62.35,31.1,56.36,22.64,65a13.62,13.62,0,0,0,0,18.94c8.46,8.67,23.24,2.67,23.3-9.47Z"/><path class="cls-1" d="M56.9,60.67c-3.35.22-6.88.42-10.3.47-.05-1.59,0-3.18-.06-4.76v-.5H47c3.38,0,6.76.09,10.14.23-.06,1.57-.19,3.15-.28,4.56Zm0,0c-.09-1.52-.22-2.93-.28-4.29l.28.28c-3.29.15-6.57.22-9.86.22l.5-.5c0,1.43,0,2.86,0,4.29L47,60.22c3.3.06,6.49.26,9.86.45Z"/><path class="cls-1" d="M49.69,80a1.58,1.58,0,0,1-3.15,0,1.58,1.58,0,1,1,3.15,0Zm0,0a1.08,1.08,0,1,0-2.15,0,1.08,1.08,0,1,0,2.15,0Z"/><path class="cls-1" d="M61.13,63.73a101,101,0,0,1-20.35,0,100.29,100.29,0,0,1,20.35,0Z"/><path class="cls-1" d="M42.61,83.48a83.71,83.71,0,0,1,18.52,0,83.11,83.11,0,0,1-18.52,0Z"/><path class="cls-1" d="M.5,83.48a108.79,108.79,0,0,1,21.12,0,108,108,0,0,1-21.12,0Z"/><path class="cls-1" d="M23.46,63.73a128.52,128.52,0,0,1-23,0,127.59,127.59,0,0,1,23,0Z"/><path class="cls-1" d="M42.88,74.5c.1,9.62-11.77,14.66-18.68,7.91a11.13,11.13,0,0,1,0-15.83c6.9-6.75,18.78-1.7,18.68,7.92Zm0,0c0-9.41-11.58-14.07-18.07-7.31a10.54,10.54,0,0,0,0,14.62c6.5,6.76,18.06,2.09,18.08-7.31Z"/><path class="cls-1" d="M15.28,52.67c-2.39.2-5.14.42-7.82.46C7.4,51.55,7.4,50,7.39,48.37h.5c2.57,0,5.14.06,7.71.21-.06,1.4-.22,2.84-.32,4.08Zm0,0c-.09-1.37-.24-2.6-.3-3.79l.3.3c-2.46.14-4.93.19-7.39.19l.5-.49c0,1.26,0,2.53-.05,3.79l-.45-.45c2.35.06,4.74.27,7.39.45Z"/><path class="cls-1" d="M30.82,65.8a19.79,19.79,0,0,0-6.07,6.89,7.56,7.56,0,0,1,6.07-6.89Z"/><path class="cls-1" d="M34.68,52.79a34.83,34.83,0,0,1,0-11.92,34.58,34.58,0,0,1,0,11.92Z"/><path class="cls-1" d="M29,41.1a33.27,33.27,0,0,1,0,11.69A33.51,33.51,0,0,1,29,41.1Z"/><path class="cls-1" d="M52,21.09c0,17.77-21.54,26.82-34.26,14.37a20.28,20.28,0,0,1,0-28.74C30.47-5.74,52,3.32,52,21.09Zm0,0C51.9,3.53,30.67-5.13,18.35,7.33c-7.46,7.26-7.47,20.26,0,27.53C30.67,47.32,51.9,38.65,52,21.09Z"/><path class="cls-1" d="M34.68,21.09a2.82,2.82,0,0,1-5.63,0,2.82,2.82,0,0,1,5.63,0Zm0,0a2.32,2.32,0,0,0-4.63,0,2.32,2.32,0,0,0,4.63,0Z"/><path class="cls-1" d="M32.12,1.2a73.25,73.25,0,0,1,0,17.32,72.72,72.72,0,0,1,0-17.32Z"/><path class="cls-1" d="M22.17,3.86a73,73,0,0,1,8.66,15,73.29,73.29,0,0,1-8.66-15Z"/><path class="cls-1" d="M14.89,11.14a73,73,0,0,1,15,8.67,73,73,0,0,1-15-8.67Z"/><path class="cls-1" d="M12.22,21.09a73.33,73.33,0,0,1,17.33,0,73.33,73.33,0,0,1-17.33,0Z"/><path class="cls-1" d="M14.89,31a73,73,0,0,1,15-8.67,73,73,0,0,1-15,8.67Z"/><path class="cls-1" d="M22.17,38.32a73.29,73.29,0,0,1,8.66-15,73,73,0,0,1-8.66,15Z"/><path class="cls-1" d="M32.12,41a72.72,72.72,0,0,1,0-17.32,73.25,73.25,0,0,1,0,17.32Z"/><path class="cls-1" d="M42.06,38.32a73,73,0,0,1-8.66-15,73.29,73.29,0,0,1,8.66,15Z"/><path class="cls-1" d="M49.34,31a73,73,0,0,1-15-8.67,73,73,0,0,1,15,8.67Z"/><path class="cls-1" d="M52,21.09a73.33,73.33,0,0,1-17.33,0,73.33,73.33,0,0,1,17.33,0Z"/><path class="cls-1" d="M49.34,11.14a73,73,0,0,1-15,8.67,73,73,0,0,1,15-8.67Z"/><path class="cls-1" d="M42.06,3.86a73.29,73.29,0,0,1-8.66,15,73,73,0,0,1,8.66-15Z"/><path class="cls-1" d="M11.27,21.09c0-18.62,22.56-28.09,35.89-15a21.23,21.23,0,0,1,0,30.08c-13.33,13.06-35.91,3.57-35.89-15Zm0,0c.11,18.41,22.36,27.5,35.29,14.44,7.83-7.62,7.83-21.26,0-28.88-12.92-13.06-35.18-4-35.29,14.44Z"/></g></g></svg>

<?xml version="1.0" encoding="utf-8"?>
<!-- Generator: Adobe Illustrator 27.0.0, SVG Export Plug-In . SVG Version: 6.00 Build 0)  -->
<svg version="1.1" id="Слой_1" xmlns="http://www.w3.org/2000/svg" xmlns:xlink="http://www.w3.org/1999/xlink" x="0px" y="0px"
	 viewBox="0 0 61.5 93.1" style="enable-background:new 0 0 61.5 93.1;" xml:space="preserve">
<style type="text/css">
	.st0{fill:#1D1D1B;}
</style>
<g id="Слой_2_00000088847778254228782620000004807067636496685996_">
	<g id="Слой_1-2">
		<path class="st0" d="M61.1,92.7c-15.3,0.1-45.7,0.4-61.1,0.4v-0.4L0,52.7v-0.5h0.5c15.1,0,45.5,0.1,60.6,0.2h0.3v0.3L61.1,92.7
			L61.1,92.7z M61.1,92.7l-0.3-40l0.3,0.3l-30.3,0.1l-30.3,0L1,52.7l-0.1,40l-0.4-0.4C15.6,92.3,46,92.6,61.1,92.7z"/>
		<path class="st0" d="M45.9,74.5C46,86.8,30.9,93.2,22,84.6c-5.6-5.5-5.6-14.5-0.1-20.1c0,0,0.1-0.1,0.1-0.1
			C30.9,55.8,46,62.1,45.9,74.5L45.9,74.5z M45.9,74.5C45.9,62.3,31.1,56.4,22.6,65c-5.1,5.3-5.1,13.7,0,18.9
			C31.1,92.6,45.9,86.6,45.9,74.5L45.9,74.5z"/>
		<path class="st0" d="M56.9,60.7c-3.3,0.2-6.9,0.4-10.3,0.5c0-1.6,0-3.2-0.1-4.8v-0.5H47c3.4,0,6.8,0.1,10.1,0.2
			C57.1,57.7,57,59.3,56.9,60.7L56.9,60.7z M56.9,60.7c-0.1-1.5-0.2-2.9-0.3-4.3l0.3,0.3c-3.3,0.2-6.6,0.2-9.9,0.2l0.5-0.5
			c0,1.4,0,2.9,0,4.3L47,60.2C50.3,60.3,53.5,60.5,56.9,60.7L56.9,60.7z"/>
		<path class="st0" d="M49.7,80c-0.1,0.9-0.8,1.5-1.7,1.4c-0.8-0.1-1.4-0.7-1.4-1.4c-0.1-0.9,0.6-1.6,1.4-1.7
			c0.9-0.1,1.6,0.6,1.7,1.4C49.7,79.8,49.7,79.9,49.7,80z M49.7,80c0.1-0.6-0.4-1.1-1-1.2c-0.6-0.1-1.1,0.4-1.2,1c0,0.1,0,0.1,0,0.2
			c-0.1,0.6,0.4,1.1,1,1.2c0.6,0.1,1.1-0.4,1.2-1C49.7,80.1,49.7,80.1,49.7,80z"/>
		<path class="st0" d="M61.1,63.7c-6.8,0.7-13.6,0.7-20.4,0C47.5,63,54.4,63,61.1,63.7z"/>
		<path class="st0" d="M42.6,83.5c6.2-0.7,12.4-0.7,18.5,0C55,84.2,48.8,84.2,42.6,83.5z"/>
		<path class="st0" d="M0.5,83.5c7-0.7,14.1-0.7,21.1,0C14.6,84.2,7.5,84.2,0.5,83.5z"/>
		<path class="st0" d="M23.5,63.7c-7.7,0.7-15.3,0.7-23,0C8.1,63,15.8,63,23.5,63.7z"/>
		<path class="st0" d="M42.9,74.5c0.1,9.6-11.8,14.7-18.7,7.9c-4.4-4.3-4.4-11.4-0.1-15.7c0,0,0.1-0.1,0.1-0.1
			C31.1,59.8,43,64.9,42.9,74.5z M42.9,74.5c0-9.4-11.6-14.1-18.1-7.3c-3.9,4.1-3.9,10.5,0,14.6C31.3,88.6,42.9,83.9,42.9,74.5
			L42.9,74.5z"/>
		<path class="st0" d="M15.3,52.7c-2.4,0.2-5.1,0.4-7.8,0.5c-0.1-1.6-0.1-3.1-0.1-4.8h0.5c2.6,0,5.1,0.1,7.7,0.2
			C15.5,50,15.4,51.4,15.3,52.7L15.3,52.7z M15.3,52.7c-0.1-1.4-0.2-2.6-0.3-3.8l0.3,0.3c-2.5,0.1-4.9,0.2-7.4,0.2l0.5-0.5
			c0,1.3,0,2.5-0.1,3.8l-0.4-0.5C10.2,52.3,12.6,52.5,15.3,52.7z"/>
		<path class="st0" d="M30.8,65.8c-2.5,1.8-4.6,4.1-6.1,6.9C25,69.3,27.5,66.5,30.8,65.8z"/>
		<path class="st0" d="M34.7,52.8c-0.7-3.9-0.7-8,0-11.9C35.4,44.8,35.4,48.8,34.7,52.8z"/>
		<path class="st0" d="M29,41.1c0.7,3.9,0.7,7.8,0,11.7C28.3,48.9,28.3,45,29,41.1z"/>
		<path class="st0" d="M52,21.1c0,17.8-21.5,26.8-34.3,14.4c-7.9-7.9-8-20.7-0.1-28.7c0,0,0,0,0.1-0.1C30.5-5.7,52,3.3,52,21.1z
			 M52,21.1C51.9,3.5,30.7-5.1,18.4,7.3c-7.5,7.3-7.5,20.3,0,27.5C30.7,47.3,51.9,38.7,52,21.1z"/>
		<path class="st0" d="M34.7,21.1c-0.1,1.6-1.4,2.7-3,2.6c-1.4-0.1-2.6-1.2-2.6-2.6c0.1-1.6,1.4-2.7,3-2.6
			C33.5,18.5,34.6,19.7,34.7,21.1z M34.7,21.1c-0.1-1.3-1.2-2.2-2.5-2.2c-1.2,0.1-2.1,1-2.2,2.2c0.1,1.3,1.2,2.2,2.5,2.2
			C33.7,23.2,34.6,22.3,34.7,21.1z"/>
		<path class="st0" d="M32.1,1.2c0.7,5.8,0.7,11.6,0,17.3C31.4,12.8,31.4,7,32.1,1.2z"/>
		<path class="st0" d="M22.2,3.9c3.5,4.6,6.4,9.7,8.7,15C27.4,14.2,24.5,9.2,22.2,3.9z"/>
		<path class="st0" d="M14.9,11.1c5.3,2.3,10.4,5.2,15,8.7C24.6,17.5,19.5,14.6,14.9,11.1z"/>
		<path class="st0" d="M12.2,21.1c5.8-0.7,11.6-0.7,17.3,0C23.8,21.8,18,21.8,12.2,21.1z"/>
		<path class="st0" d="M14.9,31c4.6-3.5,9.7-6.4,15-8.7C25.3,25.8,20.2,28.7,14.9,31z"/>
		<path class="st0" d="M22.2,38.3c2.3-5.3,5.2-10.4,8.7-15C28.5,28.6,25.6,33.7,22.2,38.3z"/>
		<path class="st0" d="M32.1,41c-0.7-5.8-0.7-11.6,0-17.3C32.8,29.4,32.8,35.2,32.1,41z"/>
		<path class="st0" d="M42.1,38.3c-3.5-4.6-6.4-9.7-8.7-15C36.9,28,39.8,33,42.1,38.3z"/>
		<path class="st0" d="M49.3,31c-5.3-2.3-10.4-5.2-15-8.7C39.7,24.6,44.7,27.5,49.3,31z"/>
		<path class="st0" d="M52,21.1c-5.8,0.7-11.6,0.7-17.3,0C40.4,20.4,46.2,20.4,52,21.1z"/>
		<path class="st0" d="M49.3,11.1c-4.6,3.5-9.7,6.4-15,8.7C39,16.3,44,13.4,49.3,11.1z"/>
		<path class="st0" d="M42.1,3.9c-2.3,5.3-5.2,10.4-8.7,15C35.7,13.5,38.6,8.5,42.1,3.9z"/>
		<path class="st0" d="M11.3,21.1c0-18.6,22.6-28.1,35.9-15c8.3,8.3,8.3,21.7,0.1,30c0,0,0,0-0.1,0.1C33.8,49.2,11.2,39.7,11.3,21.1
			L11.3,21.1z M11.3,21.1c0.1,18.4,22.4,27.5,35.3,14.4c7.8-7.6,7.8-21.3,0-28.9C33.6-6.4,11.4,2.6,11.3,21.1z"/>
	</g>
</g>
</svg>
